static/assets/images/tokens/wsteth.svg

<svg width="256" height="256" viewBox="0 0 256 256" fill="none" xmlns="http://www.w3.org/2000/svg">
<path d="M128 256C198.692 256 256 198.692 256 128C256 57.3075 198.692 0 128 0C57.3075 0 0 57.3075 0 128C0 198.692 57.3075 256 128 256Z" fill="black"/>
<path d="M128 256C198.692 256 256 198.692 256 128C256 57.3075 198.692 0 128 0C57.3075 0 0 57.3075 0 128C0 198.692 57.3075 256 128 256Z" fill="#29B2FF"/>
<path d="M72.0597 118.506L70.581 120.724C53.5761 147.341 57.2728 182.091 80.1925 204.272C92.7614 217.581 110.506 224.235 128.25 224.235C128.25 224.235 128.25 224.235 72.0597 118.506Z" fill="white"/>
<path opacity="0.6" d="M128.25 150.299L72.0801 118.675C128.27 225.144 128.25 224.235 128.25 224.235C128.25 201.315 128.25 174.698 128.25 150.299Z" fill="#EDF9FF"/>
<path opacity="0.6" d="M184.42 118.433L185.919 120.724C202.924 147.341 199.227 182.091 176.308 204.272C162.999 217.581 145.994 224.235 128.25 224.235C128.25 224.235 128.229 224.163 184.42 118.433Z" fill="white"/>
<path opacity="0.2" d="M128.25 150.298L184.42 118.433C128.229 224.902 128.25 224.235 128.25 224.235C128.25 201.315 128.25 174.698 128.25 150.298Z" fill="#EDF9FF"/>
<path opacity="0.2" d="M128.25 78.5801V134.033L177.047 106.676L128.25 78.5801Z" fill="#EDF9FF"/>
<path opacity="0.6" d="M128.25 78.5801L79.4531 106.676L128.25 134.033V78.5801Z" fill="#EDF9FF"/>
<path d="M128.25 32L79.4531 106.676L128.25 78.5801V32Z" fill="white"/>
<path opacity="0.6" d="M128.25 78.5801L177.047 106.676L128.25 32V78.5801Z" fill="white"/>
</svg>

<svg xmlns="http://www.w3.org/2000/svg" fill="none" viewBox="0 0 256 256"><path fill="#000" d="M128 256c70.692 0 128-57.308 128-128S198.692 0 128 0 0 57.308 0 128s57.308 128 128 128"/><path fill="#29B2FF" d="M128 256c70.692 0 128-57.308 128-128S198.692 0 128 0 0 57.308 0 128s57.308 128 128 128"/><path fill="#fff" d="m72.06 118.506-1.479 2.218c-17.005 26.617-13.308 61.367 9.611 83.548 12.57 13.309 30.314 19.963 48.058 19.963z"/><path fill="#EDF9FF" d="m128.25 150.299-56.17-31.624c56.19 106.469 56.17 105.56 56.17 105.56z" opacity=".6"/><path fill="#fff" d="m184.42 118.433 1.499 2.291c17.005 26.617 13.308 61.367-9.611 83.548-13.309 13.309-30.314 19.963-48.058 19.963 0 0-.021-.072 56.17-105.802" opacity=".6"/><path fill="#EDF9FF" d="m128.25 150.298 56.17-31.865c-56.191 106.469-56.17 105.802-56.17 105.802zm0-71.718v55.453l48.797-27.357z" opacity=".2"/><path fill="#EDF9FF" d="m128.25 78.58-48.797 28.096 48.797 27.357z" opacity=".6"/><path fill="#fff" d="m128.25 32-48.797 74.676L128.25 78.58z"/><path fill="#fff" d="m128.25 78.58 48.797 28.096L128.25 32z" opacity=".6"/></svg>
